X:1
T:[ID 6-7]
T:[ID 6-7]
T:Bezeichnung standardisiert: Menuett Menuet 7.
T:Urheber unbekannt Datum in der hier transkribierten schriftlichen Quelle: 1775
C:Urheber unbekannt
C:Datum in der hier transkribierten schriftlichen Quelle: 1775
L:1/8
M:3/4
K:D
V:1 treble 
V:1
 FAGE F2 | dfec d2 | Fdffeg | f2 e2 d2 | c2 Bd c2 | cBBA A2 | ^GfedcB | c6 :: cAec A2 | %9
 (fe)(ed) d2 | (cA)(ec) A2 | eddc c2 | Fdffeg | (fe)(ed) d2 | GBAGFE | F6 :| %16

